X: 102
T: the Shepton Hornpipe
O: England
M: 4/4
L: 1/8
K: G
D2 \
| "G"GABc d2dB | "C"c2e2 "G"d2B2 | "G"GABc d2dB | "C"c2e2  "D7"A2A2 | "G"GABc d2dB |
| "C"c2e2 "G"d2B2 | "G"GABc "D7"dedc | "G"B2G2 G2 :: G2 | "G"g2g2 gagf | "C"e2c2 cdcB |
| "A7"A2a2 abag | "D"f2d2 d2ef | "G"gagf "C"e2ag | "D"fgfe "D7"d2ef | "G"g2B2 "C"ce"D7"dc | "G"B2G2 G2 :|

%%sep 1 1 500

